app/dist/common/images/westrock.svg

<svg height="18" width="18" xmlns="http://www.w3.org/2000/svg"><path d="m0 0h18v18h-18z" fill="#f6f8fd"/><path d="m9 8.334 5 .666-5 .667-5-.667z" fill="#ff8200"/><path d="m9 10.667 5-1.048-5 2.381-5-2.381zm5-2.286-5-2.381-5 2.381 5-1.048z" fill="#0085ca"/><path d="m9 13 5-2.762-5 3.762-5-3.771zm5-5.229-5-3.771-5 3.771 5-2.771z" fill="#004b87"/></svg>

<!-- by TradingView --><svg width="18" height="18" xmlns="http://www.w3.org/2000/svg"><path fill="#F6F8FD" d="M0 0h18v18H0z"/><path d="M9 8.334L14 9l-5 .667L4 9l5-.666z" fill="#FF8200"/><path d="M9 10.667l5-1.048L9 12 4 9.619l5 1.048zm5-2.286L9 6 4 8.381l5-1.048 5 1.048z" fill="#0085CA"/><path d="M9 13l5-2.762L9 14l-5-3.771L9 13zm5-5.229L9 4 4 7.771 9 5l5 2.771z" fill="#004B87"/></svg>
